app/images/device-ecobee3.svg

<svg baseProfile="tiny" xmlns="http://www.w3.org/2000/svg" width="51.499" height="51.5" viewBox="-119.433 46.698 51.499 51.5"><path d="M-69.434 81.214v-17.532c0-8.537-6.946-15.483-15.483-15.483h-17.533c-8.537 0-15.482 6.946-15.482 15.483v17.532c0 8.538 6.945 15.484 15.482 15.484h17.533c8.537 0 15.483-6.946 15.483-15.484zm-37.293 9.268v-36.067h26.086v36.067h-26.086zm1.5-34.567h23.086v33.067h-23.086z" fill="none"/><path d="M-67.934 81.214v-17.532c0-9.365-7.619-16.983-16.983-16.983h-17.533c-9.364 0-16.982 7.618-16.982 16.983v17.532c0 9.365 7.618 16.984 16.982 16.984h17.533c9.364 0 16.983-7.619 16.983-16.984zm-50 0v-17.532c0-8.537 6.945-15.483 15.482-15.483h17.533c8.537 0 15.483 6.946 15.483 15.483v17.532c0 8.538-6.946 15.484-15.483 15.484h-17.533c-8.535 0-15.482-6.946-15.482-15.484zm37.293-26.799h-26.086v36.067h26.086v-36.067zm-1.5 34.567h-23.086v-33.067h23.086v33.067z"/></svg>

<?xml version="1.0" encoding="utf-8"?>
<!-- Generator: Adobe Illustrator 16.0.0, SVG Export Plug-In . SVG Version: 6.00 Build 0)  -->
<!DOCTYPE svg PUBLIC "-//W3C//DTD SVG 1.1 Tiny//EN" "http://www.w3.org/Graphics/SVG/1.1/DTD/svg11-tiny.dtd">
<svg version="1.1" baseProfile="tiny" id="Layer_4" xmlns="http://www.w3.org/2000/svg" xmlns:xlink="http://www.w3.org/1999/xlink"
	 x="0px" y="0px" width="51.499px" height="51.5px" viewBox="-119.433 46.698 51.499 51.5" xml:space="preserve">
<path fill="none" d="M-69.434,81.214V63.682c0-8.537-6.946-15.483-15.483-15.483h-17.533c-8.537,0-15.482,6.946-15.482,15.483
	v17.532c0,8.538,6.945,15.484,15.482,15.484h17.533C-76.38,96.698-69.434,89.752-69.434,81.214z M-106.727,90.482V54.415h26.086
	v36.067H-106.727z"/>
<rect x="-105.227" y="55.915" fill="none" width="23.086" height="33.067"/>
<path d="M-67.934,81.214V63.682c0-9.365-7.619-16.983-16.983-16.983h-17.533c-9.364,0-16.982,7.618-16.982,16.983v17.532
	c0,9.365,7.618,16.984,16.982,16.984h17.533C-75.553,98.198-67.934,90.579-67.934,81.214z M-117.934,81.214V63.682
	c0-8.537,6.945-15.483,15.482-15.483h17.533c8.537,0,15.483,6.946,15.483,15.483v17.532c0,8.538-6.946,15.484-15.483,15.484h-17.533
	C-110.987,96.698-117.934,89.752-117.934,81.214z"/>
<path d="M-80.641,54.415h-26.086v36.067h26.086V54.415z M-82.141,88.982h-23.086V55.915h23.086V88.982z"/>
</svg>
